src/icons/solid/symbols/variable.svg

<svg width="24" height="24" viewBox="0 0 24 24" fill="none" xmlns="http://www.w3.org/2000/svg">
<g clip-path="url(#clip0_6021_982)">
<path d="M19.79 20.5887C20.4551 20.5887 20.9998 21.1309 21 21.7937C21 22.4568 20.4552 22.9998 19.79 22.9998H4.20898C3.544 22.9996 3 22.4566 3 21.7937C3.00023 21.1311 3.54414 20.5889 4.20898 20.5887H19.79ZM19.1045 19.2527H19.0947C19.096 19.2527 19.0973 19.2518 19.0986 19.2518C19.1006 19.2518 19.1025 19.2527 19.1045 19.2527ZM18.54 1.14043C19.1245 0.829066 19.8603 1.05018 20.1729 1.63262C20.4852 2.21517 20.264 2.94906 19.6797 3.26055L6.75879 10.1316L19.6689 16.993C20.2534 17.3044 20.4755 18.0373 20.1631 18.6199C19.9521 19.0205 19.5306 19.2504 19.0986 19.2518C18.9092 19.2509 18.7195 19.2115 18.54 19.1121L4.5918 11.698C4.49117 11.6378 4.39007 11.5674 4.30957 11.4871C3.55422 10.7338 3.55416 9.51873 4.30957 8.76543C4.3901 8.68516 4.49114 8.61471 4.5918 8.55449L18.54 1.14043Z" fill="#3C3B44"/>
</g>
<defs>
<clipPath id="clip0_6021_982">
<rect width="24" height="24" fill="white"/>
</clipPath>
</defs>
</svg>

<svg xmlns="http://www.w3.org/2000/svg" width="24" height="24" fill="none" viewBox="0 0 24 24"><g clip-path="url(#a)"><path fill="currentColor" d="M19.79 20.589c.665 0 1.21.542 1.21 1.205S20.455 23 19.79 23H4.209A1.21 1.21 0 0 1 3 21.794a1.21 1.21 0 0 1 1.209-1.205zm-.685-1.336h-.01l.004-.001zM18.54 1.14a1.213 1.213 0 0 1 1.633.493 1.205 1.205 0 0 1-.493 1.628L6.759 10.13l12.91 6.862c.584.311.806 1.044.494 1.627a1.205 1.205 0 0 1-1.623.492L4.592 11.698c-.1-.06-.202-.13-.282-.21a1.92 1.92 0 0 1 0-2.723c.08-.08.181-.15.282-.21z"/></g><defs><clipPath id="a"><path fill="currentColor" d="M0 0h24v24H0z"/></clipPath></defs></svg>
